icons/Logos/npmjs-line.svg

<svg viewBox="0 0 24 24" xmlns="http://www.w3.org/2000/svg"><path d="M20.001 3C20.5533 3 21.001 3.44772 21.001 4V20C21.001 20.5523 20.5533 21 20.001 21H4.00098C3.44869 21 3.00098 20.5523 3.00098 20V4C3.00098 3.44772 3.44869 3 4.00098 3H20.001ZM19.001 5H5.00098V19H19.001V5ZM17.001 7V17H14.501V9.5H12.001V17H7.00098V7H17.001Z"/></svg>

<svg xmlns="http://www.w3.org/2000/svg" viewBox="0 0 24 24">
    <g>
        <path fill="none" d="M0 0H24V24H0z"/>
        <path d="M20 3c.552 0 1 .448 1 1v16c0 .552-.448 1-1 1H4c-.552 0-1-.448-1-1V4c0-.552.448-1 1-1h16zm-1 2H5v14h14V5zm-2 2v10h-2.5V9.5H12V17H7V7h10z"/>
    </g>
</svg>
